X:41
T:Hanter Dro II
R:Breton
S:from Anna Pack/Frances Watt
G:A instrument - whistle
P:A whistle: 3x
M:6/4
K:D
|: d2de f2eg f2e2 | ddde f2eg f2e2 | d2de f2eg f4 :|
|: e2fg a2ag f4 | abag fgfd e4 | e2fg a2ag f4 | f2ff egfe d4 :|

